X:1
T:Title
%%score { ( 1 3 4 5 ) | ( 2 6 7 ) }
L:1/8
Q:1/4=100
M:4/4
K:Bb
V:1 treble nm="Grand Piano"
V:3 treble 
V:4 treble 
V:5 treble 
V:2 bass 
V:6 bass 
V:7 bass 
V:1
 [Fd]>[Fd] [Fd]>[Fc] [FB]2 [DF]2 | [FA]2 G2 G4 | c>d c>B A2 E2 | z4 z2 (3B=Bc | %4
w: Haldor~Lillenas * * * * *||||
 [Fd]>[Fd] [Fd]>[Fc] [FB]2 [DF]2 | z4 e2 (3z dc | d>d d>B c2 A2 | [DFB]6 z2 | %8
w: ||||
 [DF]>[EG] [DF]>[EG] [DF]2 [Fd]2 | [=Ec]4 (3cdc z2 | F>G F>G F2 e2 | d6 z2 | %12
w: ||||
 [Fd]>[=E_d] =d>e f2 d2 | [Gc]>[G=B] [Gc]>[Gd] [Ge]2 G2 | F>d d>B c2 [EFA]2 | [DFB]6 z2 |] %16
w: ||||
V:2
 [B,,B,]>[B,,B,] [B,,B,]>[C,A,] [D,B,]2 [B,,B,]2 | [E,B,]2 [E,B,E]2 [E,B,E]4 | %2
 [F,A,E]>[F,A,E] [F,A,E]>[F,A,E] [F,CE]2 [F,A,C]2 | [B,,B,]2 [B,,B,]2 [B,,B,]4 | %4
 [B,,B,]>[B,,B,] [B,,B,]>[C,A,] [D,B,]2 [B,,B,]2 | [E,B,]2 [E,B,]2 [C,C]4 | %6
 [F,B,F]>[F,B,F] [F,A,F]>[F,DF] [F,EF]2 [F,EF]2 | B,,6 z2 | %8
 [B,,B,]>[B,,B,] [B,,B,]>[B,,B,] [B,,B,]2 [B,,B,]2 | [C,G,]2 C,2 C,2 [C,B,]2 | %10
 [F,A,E]>[F,A,E] [F,A,E]>[F,A,E][K:treble] [A,C]2 [A,CF]2 | .[B,FB]2[K:bass] (3:2:2F,2 A B,,2 z2 | %12
 [B,,B,]>[B,,B,][K:treble] [B,F]>[B,CF] [B,DF]2 [B,F]2 | %13
 [E,E]>[E,E] [E,C]>[D,=B,] [C,C]2 [E,_B,E]2 | [F,B,D]>[F,B,F] [F,B,F]>[F,DF] [F,EF]2 F,,2 | %15
 B,,6 z2 |] %16
V:3
 x8 | x8 | x8 | [DG]2 [DF]2 (3z GA z2 | x8 | [FA]2 [EG]2 (3z cd e2 | x8 | x8 | x8 | z4 [=EG]4 | %10
 x8 | z2 F4 z2 | x8 | x8 | x8 | x8 |] %16
V:4
 x8 | x8 | x8 | z4 [DF]4 | x8 | z4 G4 | x8 | x8 | x8 | z2 G,2 C2 (3BAG | x8 | (3:2:5z DE z .G2 z4 | %12
 x8 | x8 | x8 | x8 |] %16
V:5
 x8 | x8 | x8 | x8 | x8 | x8 | x8 | x8 | x8 | x8 | x8 | z4 B,2 z2 | x8 | x8 | x8 | x8 |] %16
V:6
 x8 | x8 | x8 | x8 | x8 | x8 | x8 | x8 | x8 | x8 | x4[K:treble] x4 | z2[K:bass] B,2 z4 | %12
 x2[K:treble] x6 | x8 | x8 | x8 |] %16
V:7
 x8 | x8 | x8 | x8 | x8 | x8 | x8 | x8 | x8 | x8 | x4[K:treble] x4 | z2[K:bass] z D, z4 | %12
 x2[K:treble] x6 | x8 | x8 | x8 |] %16

